tools/download-figma-icons/icons/outlined-large/lkw-with-box.svg

<svg xmlns="http://www.w3.org/2000/svg" width="64" height="64" fill="none" viewBox="0 0 64 64"><path fill="currentColor" fill-rule="evenodd" d="M63.83 31.307 58.391 20.88A3.49 3.49 0 0 0 55.288 19H43v-3.5c0-1.93-1.57-3.5-3.5-3.5h-36C1.57 12 0 13.57 0 15.5v27C0 44.43 1.57 46 3.5 46h4.08c.488 3.386 3.401 6 6.92 6s6.432-2.614 6.92-6h23.66c.488 3.386 3.401 6 6.92 6s6.432-2.614 6.92-6h1.58c1.93 0 3.5-1.57 3.5-3.5V32c0-.241-.059-.479-.17-.693m-8.1-9.039L60.286 31H49v-9h6.288c.187 0 .356.103.442.268M3 42.5v-27c0-.275.225-.5.5-.5h36c.275 0 .5.225.5.5V43H3.5a.5.5 0 0 1-.5-.5M14.5 49c-1.859 0-3.411-1.279-3.858-3h7.716c-.447 1.721-1.999 3-3.858 3M52 49c-2.206 0-4-1.794-4-4s1.794-4 4-4 4 1.794 4 4-1.794 4-4 4m8.5-6h-1.795c-.863-2.888-3.541-5-6.705-5s-5.842 2.112-6.705 5H43V22h3v10.5a1.5 1.5 0 0 0 1.5 1.5H61v8.5c0 .275-.225.5-.5.5M30 36.5V28h.5a1.5 1.5 0 0 0 1.5-1.5v-5a1.5 1.5 0 0 0-1.5-1.5h-19a1.5 1.5 0 0 0-1.5 1.5v5a1.5 1.5 0 0 0 1.5 1.5h.5v8.5a1.5 1.5 0 0 0 1.5 1.5h15a1.5 1.5 0 0 0 1.5-1.5M13 23h16v2H13zm14 12H15v-7h12zm-4.5-2h-3a1.5 1.5 0 0 1 0-3h3a1.5 1.5 0 0 1 0 3" clip-rule="evenodd"/></svg>

<svg width="64" height="64" viewBox="0 0 64 64" fill="none" xmlns="http://www.w3.org/2000/svg">
<path fill-rule="evenodd" clip-rule="evenodd" d="M63.83 31.307L58.391 20.88C57.786 19.721 56.596 19 55.288 19H43V15.5C43 13.57 41.43 12 39.5 12H3.5C1.57 12 0 13.57 0 15.5V42.5C0 44.43 1.57 46 3.5 46H7.58C8.068 49.386 10.981 52 14.5 52C18.019 52 20.932 49.386 21.42 46H45.08C45.568 49.386 48.481 52 52 52C55.519 52 58.432 49.386 58.92 46H60.5C62.43 46 64 44.43 64 42.5V32C64 31.759 63.941 31.521 63.83 31.307ZM55.73 22.268L60.286 31H49V22H55.288C55.475 22 55.644 22.103 55.73 22.268ZM3 42.5V15.5C3 15.225 3.225 15 3.5 15H39.5C39.775 15 40 15.225 40 15.5V43H3.5C3.225 43 3 42.775 3 42.5ZM14.5 49C12.641 49 11.089 47.721 10.642 46H18.358C17.911 47.721 16.359 49 14.5 49ZM52 49C49.794 49 48 47.206 48 45C48 42.794 49.794 41 52 41C54.206 41 56 42.794 56 45C56 47.206 54.206 49 52 49ZM60.5 43H58.705C57.842 40.112 55.164 38 52 38C48.836 38 46.158 40.112 45.295 43H43V22H46V32.5C46 33.328 46.672 34 47.5 34H61V42.5C61 42.775 60.775 43 60.5 43ZM30 36.5V28H30.5C31.328 28 32 27.328 32 26.5V21.5C32 20.672 31.328 20 30.5 20H11.5C10.672 20 10 20.672 10 21.5V26.5C10 27.328 10.672 28 11.5 28H12V36.5C12 37.328 12.672 38 13.5 38H28.5C29.328 38 30 37.328 30 36.5ZM13 23H29V25H13V23ZM27 35H15V28H27V35ZM22.5 33H19.5C18.672 33 18 32.328 18 31.5C18 30.672 18.672 30 19.5 30H22.5C23.328 30 24 30.672 24 31.5C24 32.328 23.328 33 22.5 33Z" fill="black"/>
</svg>
